resources/haticons/SVG/swap_vertical_circle.svg

<!-- Generated by IcoMoon.io -->
<svg version="1.1" xmlns="http://www.w3.org/2000/svg" width="24" height="24" viewBox="0 0 24 24">
<title>swap_vertical_circle</title>
<path d="M17.484 15h-2.484v-3.984h-2.016v3.984h-2.484l3.516 3.516zM6.516 9h2.484v3.984h2.016v-3.984h2.484l-3.516-3.516zM12 2.016q4.125 0 7.055 2.93t2.93 7.055-2.93 7.055-7.055 2.93-7.055-2.93-2.93-7.055 2.93-7.055 7.055-2.93z"></path>
</svg>

<svg xmlns="http://www.w3.org/2000/svg" width="24" height="24"><path d="M17.484 15H15v-3.984h-2.016V15H10.5l3.516 3.516zM6.516 9H9v3.984h2.016V9H13.5L9.984 5.484zM12 2.016q4.125 0 7.055 2.93t2.93 7.055-2.93 7.055T12 21.986t-7.055-2.93-2.93-7.055 2.93-7.055T12 2.016z"/></svg>
